icons/circle/48/picasa.svg

<svg xmlns="http://www.w3.org/2000/svg" viewBox="0 0 48 48">
 <defs>
  <linearGradient id="linearGradient3764" x1="1" x2="47" gradientUnits="userSpaceOnUse" gradientTransform="matrix(0,-1,1,0,-1.5e-6,47.999998)">
   <stop style="stop-color:#e4e4e4;stop-opacity:1"/>
   <stop offset="1" style="stop-color:#eee;stop-opacity:1"/>
  </linearGradient>
 </defs>
 <g>
  <path d="m 36.31 5 c 5.859 4.062 9.688 10.831 9.688 18.5 c 0 12.426 -10.07 22.5 -22.5 22.5 c -7.669 0 -14.438 -3.828 -18.5 -9.688 c 1.037 1.822 2.306 3.499 3.781 4.969 c 4.085 3.712 9.514 5.969 15.469 5.969 c 12.703 0 23 -10.298 23 -23 c 0 -5.954 -2.256 -11.384 -5.969 -15.469 c -1.469 -1.475 -3.147 -2.744 -4.969 -3.781 z m 4.969 3.781 c 3.854 4.113 6.219 9.637 6.219 15.719 c 0 12.703 -10.297 23 -23 23 c -6.081 0 -11.606 -2.364 -15.719 -6.219 c 4.16 4.144 9.883 6.719 16.219 6.719 c 12.703 0 23 -10.298 23 -23 c 0 -6.335 -2.575 -12.06 -6.719 -16.219 z" style="opacity:0.05"/>
  <path d="m 41.28 8.781 c 3.712 4.085 5.969 9.514 5.969 15.469 c 0 12.703 -10.297 23 -23 23 c -5.954 0 -11.384 -2.256 -15.469 -5.969 c 4.113 3.854 9.637 6.219 15.719 6.219 c 12.703 0 23 -10.298 23 -23 c 0 -6.081 -2.364 -11.606 -6.219 -15.719 z" style="opacity:0.1"/>
  <path d="m 31.25 2.375 c 8.615 3.154 14.75 11.417 14.75 21.13 c 0 12.426 -10.07 22.5 -22.5 22.5 c -9.708 0 -17.971 -6.135 -21.12 -14.75 a 23 23 0 0 0 44.875 -7 a 23 23 0 0 0 -16 -21.875 z" style="opacity:0.2"/>
 </g>
 <g>
  <path d="m 24 1 c 12.703 0 23 10.297 23 23 c 0 12.703 -10.297 23 -23 23 -12.703 0 -23 -10.297 -23 -23 0 -12.703 10.297 -23 23 -23 z" style="fill:url(#linearGradient3764);fill-opacity:1"/>
 </g>
 <g>
  <g>
   <g transform="translate(1,1)">
    <g style="opacity:0.1">
     <!-- color: #eeeeee -->
    </g>
   </g>
  </g>
 </g>
 <g>
  <g>
   <!-- color: #eeeeee -->
  </g>
 </g>
 <g>
  <path d="m 40.03 7.531 c 3.712 4.084 5.969 9.514 5.969 15.469 0 12.703 -10.297 23 -23 23 c -5.954 0 -11.384 -2.256 -15.469 -5.969 4.178 4.291 10.01 6.969 16.469 6.969 c 12.703 0 23 -10.298 23 -23 0 -6.462 -2.677 -12.291 -6.969 -16.469 z" style="opacity:0.1"/>
 </g>
 <g>
  <path d="m 25 10 c -1.623 0.001 -3.235 0.276 -4.771 0.799 l 11.771 10.201 l 0 -9.256 c -2.157 -1.142 -4.56 -1.746 -7 -1.744 z m -6.891 1.68 c -4.982 2.575 -8.115 7.713 -8.113 13.32 c 0 0.937 0.095 1.871 0.273 2.791 l 13.227 -11.291 m 11.504 -2.66 0 16.16 4.123 0 c 0.574 -1.605 0.877 -3.296 0.877 -5 0 -4.261 -1.824 -8.319 -5 -11.16 z m -19 12.16 -4.982 4.43 c 1.018 2.604 2.744 4.872 4.982 6.547 z m 3 6 0 6.74 c 1.892 0.829 3.935 1.26 6 1.26 5.56 -0.001 10.661 -3.083 13.256 -8 z" style="fill:#000;opacity:0.1;fill-opacity:1;stroke:none"/>
  <path d="m 34 12.84 0 16.16 4.123 0 c 0.574 -1.605 0.877 -3.296 0.877 -5 0 -4.261 -1.824 -8.319 -5 -11.16" style="fill:#f7cf61;opacity:1;fill-opacity:1;stroke:none"/>
  <path d="m 18 31 0 6.74 c 1.892 0.829 3.935 1.26 6 1.26 5.56 -0.001 10.661 -3.083 13.256 -8 z" style="fill:#0aa960;opacity:1;fill-opacity:1;stroke:none"/>
  <path d="m 15 25 -4.982 4.43 a 15 15 0 0 0 4.982 6.547 l 0 -10.977" style="fill:#4587fb;opacity:1;fill-opacity:1;stroke:none"/>
  <path d="m 24 9 c -1.623 0.001 -3.235 0.276 -4.771 0.799 l 11.771 10.201 0 -9.256 c -2.157 -1.142 -4.56 -1.746 -7 -1.744" style="fill:#e24c42;opacity:1;fill-opacity:1;stroke:none"/>
  <path d="m 17.11 10.68 c -4.982 2.575 -8.115 7.713 -8.113 13.32 c 0 0.937 0.095 1.871 0.273 2.791 l 13.227 -11.291" style="fill:#9c45a1;opacity:1;fill-opacity:1;stroke:none"/>
 </g>
</svg>

<svg xmlns="http://www.w3.org/2000/svg" viewBox="0 0 48 48">
  <defs>
    <linearGradient id="a" x1="1" x2="47" gradientUnits="userSpaceOnUse" gradientTransform="rotate(-90 24 24)">
      <stop stop-color="#e4e4e4"/>
      <stop offset="1" stop-color="#eee"/>
    </linearGradient>
  </defs>
  <path d="M36.31 5c5.859 4.062 9.688 10.831 9.688 18.5 0 12.426-10.07 22.5-22.5 22.5-7.669 0-14.438-3.828-18.5-9.688a23.24 23.24 0 0 0 3.781 4.969 22.923 22.923 0 0 0 15.469 5.969c12.703 0 23-10.298 23-23a22.92 22.92 0 0 0-5.969-15.469A23.216 23.216 0 0 0 36.31 5zm4.969 3.781A22.911 22.911 0 0 1 47.498 24.5c0 12.703-10.297 23-23 23a22.909 22.909 0 0 1-15.719-6.219C12.939 45.425 18.662 48 24.998 48c12.703 0 23-10.298 23-23 0-6.335-2.575-12.06-6.719-16.219z" opacity=".05"/>
  <path d="M41.28 8.781a22.923 22.923 0 0 1 5.969 15.469c0 12.703-10.297 23-23 23A22.92 22.92 0 0 1 8.78 41.281 22.911 22.911 0 0 0 24.499 47.5c12.703 0 23-10.298 23-23A22.909 22.909 0 0 0 41.28 8.781z" opacity=".1"/>
  <path d="M31.25 2.375C39.865 5.529 46 13.792 46 23.505c0 12.426-10.07 22.5-22.5 22.5-9.708 0-17.971-6.135-21.12-14.75a23 23 0 0 0 44.875-7 23 23 0 0 0-16-21.875z" opacity=".2"/>
  <path d="M24 1c12.703 0 23 10.297 23 23S36.703 47 24 47 1 36.703 1 24 11.297 1 24 1z" fill="url(#a)"/>
  <g>
    <path d="M40.03 7.531A22.922 22.922 0 0 1 45.999 23c0 12.703-10.297 23-23 23A22.92 22.92 0 0 1 7.53 40.031C11.708 44.322 17.54 47 23.999 47c12.703 0 23-10.298 23-23 0-6.462-2.677-12.291-6.969-16.469z" opacity=".1"/>
  </g>
  <g>
    <path d="M25 10a14.839 14.839 0 0 0-4.771.799L32 21v-9.256A14.94 14.94 0 0 0 25 10zm-6.891 1.68A14.992 14.992 0 0 0 9.996 25c0 .937.095 1.871.273 2.791L23.496 16.5M35 13.84V30h4.123c.574-1.605.877-3.296.877-5a14.98 14.98 0 0 0-5-11.16zM16 26l-4.982 4.43A15 15 0 0 0 16 36.977zm3 6v6.74A14.954 14.954 0 0 0 25 40a14.995 14.995 0 0 0 13.256-8z" opacity=".1"/>
    <path d="M34 12.84V29h4.123c.574-1.605.877-3.296.877-5a14.98 14.98 0 0 0-5-11.16" fill="#f7cf61"/>
    <path d="M18 31v6.74A14.954 14.954 0 0 0 24 39a14.995 14.995 0 0 0 13.256-8z" fill="#0aa960"/>
    <path d="M15 25l-4.982 4.43A15 15 0 0 0 15 35.977V25" fill="#4587fb"/>
    <path d="M24 9a14.839 14.839 0 0 0-4.771.799L31 20v-9.256A14.94 14.94 0 0 0 24 9" fill="#e24c42"/>
    <path d="M17.11 10.68A14.992 14.992 0 0 0 8.997 24c0 .937.095 1.871.273 2.791L22.497 15.5" fill="#9c45a1"/>
  </g>
</svg>
